X:20
%%topspace -50
T:Goodbye Girls We're Going to Boston
M:2/4
L:1/8
K:G
B/2G/2 | "G"GB d3/2d/2 | "C"ee cA | "D7"AB cc | "G"d3/2d/2 BG |\
GB d3/2d/2 | "C"ee cA | "D7"dd cA | "G"G2 G :|]
[|:B/2d/2 | "G"g3/2g/2 ga | g2 d2 | "F"=ff/2f/2 fg | =f2 d2 |\
"G"g3/2g/2 ga | g2 d2 | "F"=fd "D7"cA | "G"G2 G :|]

